packages/icons/svg/32/Gift.svg

<svg width="32" height="32" viewBox="0 0 32 32" fill="none" xmlns="http://www.w3.org/2000/svg">
<path fill-rule="evenodd" clip-rule="evenodd" d="M17 14.5V9H15V14.5H6V11.5639C6 10.6724 6.09283 10.3491 6.26713 10.0232C6.44144 9.69723 6.69723 9.44144 7.02315 9.26713C7.34555 9.09471 7.66537 9.00202 8.53515 9.00003C8.1948 8.41168 8 7.72859 8 7C8 4.79086 9.79086 3 12 3C14.2091 3 16 4.79086 16 7C16 4.79086 17.7909 3 20 3C22.2091 3 24 4.79086 24 7C24 7.72859 23.8052 8.41168 23.4649 9.00003C24.3346 9.00202 24.6544 9.09471 24.9768 9.26713C25.3028 9.44144 25.5586 9.69723 25.7329 10.0232C25.9072 10.3491 26 10.6724 26 11.5639V14.5H17ZM17 16.5H26V23.4361C26 24.3276 25.9072 24.6509 25.7329 24.9768C25.5586 25.3028 25.3028 25.5586 24.9768 25.7329C24.6509 25.9072 24.3276 26 23.4361 26H17V16.5ZM8.56389 26C7.67237 26 7.34908 25.9072 7.02315 25.7329C6.69723 25.5586 6.44144 25.3028 6.26713 24.9768C6.09283 24.6509 6 24.3276 6 23.4361V16.5H15V26H8.56389ZM20 9C21.1046 9 22 8.10457 22 7C22 5.89543 21.1046 5 20 5C18.8954 5 18 5.89543 18 7V9H20ZM12 9H14V7C14 5.89543 13.1046 5 12 5C10.8954 5 10 5.89543 10 7C10 8.10457 10.8954 9 12 9Z" fill="#858585"/>
</svg>

<svg width="32" height="32" fill="none" xmlns="http://www.w3.org/2000/svg" viewBox="0 0 32 32"><path fill-rule="evenodd" clip-rule="evenodd" d="M17 14.5V9h-2v5.5H6v-2.936c0-.892.093-1.215.267-1.54.174-.327.43-.583.756-.757.323-.172.642-.265 1.512-.267a4 4 0 1114.93 0c.87.002 1.19.095 1.512.267.326.174.582.43.756.756.174.326.267.65.267 1.54V14.5h-9zm0 2h9v6.936c0 .892-.093 1.215-.267 1.54-.174.327-.43.583-.756.757-.326.174-.65.267-1.54.267H17v-9.5zM8.564 26c-.892 0-1.215-.093-1.54-.267a1.817 1.817 0 01-.757-.756c-.174-.326-.267-.65-.267-1.54V16.5h9V26H8.564zM20 9a2 2 0 10-2-2v2h2zm-8 0h2V7a2 2 0 10-2 2z" fill="currentColor"></path></svg>
